X:457
L:1/8
M:4/4
K:G
 d2 | B2 G2 B2 d2 | (g4 g4) | d3 d d2 c2 | B2 G4 d2 | B2 G2 B2 d2 | g6 d d | d2 d2 d2 c2 | B2 G4 || 
"^chorus" d d || e3 f g3 e | f g a f d4 | e3 f g3 e | d e d c B2 G2 | d3 d d3 c | B2 G4 ||

